img/icons/148705-essential-collection/svg/placeholder-1.svg

<svg xmlns="http://www.w3.org/2000/svg" viewBox="0 0 60 60"><path fill="#424a60" d="M0 41.5h60v18H0z"/><path d="M56 51.5h-4v-2h4v2zm-8 0h-4v-2h4v2zm-8 0h-4v-2h4v2zm-8 0h-4v-2h4v2zm-8 0h-4v-2h4v2zm-8 0h-4v-2h4v2zm-8 0H4v-2h4v2z" fill="#fff"/><path d="M44.03 5.824c-7.098-7.098-18.607-7.098-25.706 0-6.396 6.396-7.116 18.44-1.688 25.676l14.541 21 14.541-21c5.428-7.237 4.708-19.28-1.688-25.676zM31.354 24.5a6 6 0 1 1 0-12 6 6 0 0 1 0 12z" fill="#23a24d"/></svg>

<?xml version="1.0" encoding="iso-8859-1"?>
<!-- Generator: Adobe Illustrator 19.0.0, SVG Export Plug-In . SVG Version: 6.00 Build 0)  -->
<svg version="1.1" id="Capa_1" xmlns="http://www.w3.org/2000/svg" xmlns:xlink="http://www.w3.org/1999/xlink" x="0px" y="0px"
	 viewBox="0 0 60 60" style="enable-background:new 0 0 60 60;" xml:space="preserve">
<rect y="41.5" style="fill:#424A60;" width="60" height="18"/>
<path style="fill:#FFFFFF;" d="M56,51.5h-4v-2h4V51.5z M48,51.5h-4v-2h4V51.5z M40,51.5h-4v-2h4V51.5z M32,51.5h-4v-2h4V51.5z
	 M24,51.5h-4v-2h4V51.5z M16,51.5h-4v-2h4V51.5z M8,51.5H4v-2h4V51.5z"/>
<path style="fill:#23A24D;" d="M44.03,5.824L44.03,5.824c-7.098-7.098-18.607-7.098-25.706,0h0
	c-6.396,6.396-7.116,18.44-1.688,25.676l14.541,21l14.541-21C51.146,24.263,50.426,12.22,44.03,5.824z M31.354,24.5
	c-3.314,0-6-2.686-6-6s2.686-6,6-6s6,2.686,6,6S34.667,24.5,31.354,24.5z"/>
<g>
</g>
<g>
</g>
<g>
</g>
<g>
</g>
<g>
</g>
<g>
</g>
<g>
</g>
<g>
</g>
<g>
</g>
<g>
</g>
<g>
</g>
<g>
</g>
<g>
</g>
<g>
</g>
<g>
</g>
</svg>
